X: 1
T: Gan Ainm
M: 6/8
L: 1/8
R: jig
K: Dmaj
D|:  F2G A2A | B2c d2B | A2F FED | E2F E2D |
F2G A2A | B2c d2B | A2F FED | F2E D2D :|
|: d2c d2B | A2F A2B | d2c d2B | A2F E2D |
F2G A2A | B2c d2B | A2F FED | F2E D2D :|
